public/assets/garantii/img1.svg

<svg width="68" height="79" viewBox="0 0 68 79" fill="none" xmlns="http://www.w3.org/2000/svg">
<path d="M34.5 55.7812C34.0063 55.7812 33.5125 55.7812 33.2656 55.5344L20.9219 48.1281C20.1812 47.6344 19.6875 46.8937 19.6875 45.9062V31.0938C19.6875 30.1062 20.1812 29.3656 20.9219 28.8719L33.2656 21.4656C33.5125 21.2188 34.0063 21.2188 34.5 21.2188C34.9937 21.2188 35.4875 21.2188 35.7344 21.4656L48.0781 28.8719C48.8188 29.3656 49.3125 30.1062 49.3125 31.0938V45.9062C49.3125 46.8937 48.8188 47.6344 48.0781 48.1281L35.7344 55.5344C35.4875 55.7812 34.9937 55.7812 34.5 55.7812ZM23.5 45L34.5 52L45.5 45.5V31.8316L34.5 25L23.5 32V45Z" fill="#202020"/>
<line x1="2" y1="21" x2="2" y2="56" stroke="#202020" stroke-width="4"/>
<line x1="66" y1="35" x2="66" y2="56" stroke="#202020" stroke-width="4"/>
<line x1="33.3125" y1="1.73205" x2="3.00161" y2="19.232" stroke="#202020" stroke-width="4"/>
<line x1="65.3125" y1="57.7321" x2="35.0016" y2="75.232" stroke="#202020" stroke-width="4"/>
<line x1="33.3125" y1="75.2321" x2="3.00161" y2="57.732" stroke="#202020" stroke-width="4"/>
<line x1="65.3125" y1="19.2321" x2="35.0016" y2="1.73205" stroke="#202020" stroke-width="4"/>
</svg>

<svg width="68" height="79" fill="none" xmlns="http://www.w3.org/2000/svg"><path d="M34.5 55.781c-.494 0-.987 0-1.234-.247l-12.344-7.406c-.74-.494-1.235-1.234-1.235-2.222V31.094c0-.988.494-1.728 1.235-2.222l12.344-7.406c.247-.247.74-.247 1.234-.247s.987 0 1.234.247l12.344 7.406c.74.494 1.234 1.234 1.234 2.222v14.812c0 .988-.493 1.728-1.234 2.222l-12.344 7.406c-.247.247-.74.247-1.234.247ZM23.5 45l11 7 11-6.5V31.832L34.5 25l-11 7v13Z" fill="#202020"/><path stroke="#202020" stroke-width="4" d="M2 21v35M66 35v21M33.313 1.732l-30.311 17.5M65.313 57.732l-30.311 17.5M33.313 75.232l-30.311-17.5M65.313 19.232l-30.311-17.5"/></svg>
